hulu.svg

<svg viewBox="0 0 24 24" xmlns="http://www.w3.org/2000/svg"><path d="M3.77227 10.5183L2.54998 10.5183C2.1211 10.5183 1.90543 10.6338 1.90543 10.6338L1.90543 8.0582L0 8.0582L0 15.9418L1.90543 15.9418L1.90543 12.7607C1.90543 12.4793 2.13449 12.2515 2.4163 12.2515L3.52553 12.2515C3.80777 12.2515 4.03601 12.4793 4.03601 12.7607L4.03601 15.9418L5.94226 15.9418L5.94226 12.5144C5.94226 11.0729 4.97887 10.5183 3.77227 10.5183ZM22.0937 10.5183L22.0937 13.6989C22.0937 13.9808 21.8655 14.2086 21.5833 14.2086L20.4745 14.2086C20.1922 14.2086 19.964 13.9808 19.964 13.6989L19.964 10.5183L18.0574 10.5183L18.0574 13.8578C18.0574 15.2228 18.9332 15.9418 20.2277 15.9418L22.0941 15.9418L22.0941 15.9319C23.2865 15.9319 24 15.086 24 13.8578L24 10.5183L22.0937 10.5183ZM11.3417 13.6989C11.3417 13.9808 11.1131 14.2086 10.8309 14.2086L9.72163 14.2086C9.43939 14.2086 9.21118 13.9808 9.21118 13.6989L9.21118 10.5183L7.3049 10.5183L7.3049 13.8578C7.3049 15.2228 8.18081 15.9418 9.47527 15.9418L11.3417 15.9418L11.3417 15.9319C12.5341 15.9319 13.248 15.086 13.248 13.8578L13.248 10.5183L11.3417 10.5183L11.3417 13.6989ZM14.7005 15.9418L16.6072 15.9418L16.6072 8.0582L14.7005 8.0582L14.7005 15.9418Z" fill="#1ce783"/></svg>

<svg viewBox="0 0 24 24" xmlns="http://www.w3.org/2000/svg"><path d="M3.772 10.518H2.55c-.429 0-.645.116-.645.116V8.058H0v7.884h1.905V12.76c0-.282.23-.51.511-.51h1.11a.51.51 0 0 1 .51.51v3.18h1.906v-3.427c0-1.441-.963-1.996-2.17-1.996Zm18.322 0v3.18a.51.51 0 0 1-.51.51h-1.11a.51.51 0 0 1-.51-.51v-3.18h-1.907v3.34c0 1.365.876 2.084 2.17 2.084h1.867v-.01c1.192 0 1.906-.846 1.906-2.074v-3.34h-1.906Zm-10.752 3.18a.51.51 0 0 1-.511.51H9.72a.51.51 0 0 1-.51-.51v-3.18H7.305v3.34c0 1.365.876 2.084 2.17 2.084h1.867v-.01c1.192 0 1.906-.846 1.906-2.074v-3.34h-1.906v3.18Zm3.358 2.244h1.907V8.058h-1.906v7.884Z" fill="#1ce783"/></svg>
